!!!OTL: 462. s' Bluemeli.
!!!COM: J. G. Kuhn
!!!ODT: 1805
!!!ARE: Europa, Mitteleuropa, Deutschland; Schweiz
!!!SCT: B0462
!!!TXL: @@SWG
!!!YEM: Copyright 1995, estate of Helmut Schaffrath.
**kern	**text
*ICvox	*
*Ivox	*
*clefG2	*
*M2/4	*
*k[b-]	*
*F:	*
!LO:TX:a:t=Etwas langſam.	!
{16ccL	Han
16aJ	.
=1	=1
8f	an
8f	em
8f	Ort
8dd	e
=2	=2
8cc	Blü-
16cc	-me-
16a	-li
8b-	gſeh,
16r}	.
{16g	e
=3	=3
8a	Blü-
16b-	-me-
16cc	-li
16ddL	roth
16ccJ	.
16b-L	und
16aJ	.
=4	=4
4g	wiß;
8r}	.
{16gL	ſelbs
16aJ	.
=5	=5
8b-/	Blü-
16b-/	-me-
16a/	-li
8g	gſeh_n-
8dd	-i
=6	=6
8.cc	nim-
16b-	-me-
8a}	-meh,
{8cc	drum
=7	=7
8dd	thut
8cc	es
8b-/	mir
8a/	im
=8	=8
16gL	Herʒ
16fJ	.
16eL	ſo
16fJ	.
8g;}	weh.
{8cc	O
=9	=9
8a	Blü-
16a	-me-
16a	-li
8a	mi,
8cc	o
=10	=10
8g	Blü-
16.g	-me-
32g	-li
8g}	mi,
{8cc	i
=11	=11
8a	möcht
16ccL	gern
16b-J	.
8g	bi
16gL	der
16aJ	.
=12	=12
4f	ſi!
8r}	.
{8cc	O
=13	=13
8a	Blü-
16a	-me-
16a	-li
8a	mi,
8cc	o
=14	=14
8g	Blü-
16.g	-me-
32g	-li
8g}	mi,
{8cc	i
=15	=15
8a	möcht
16ccL	gern
16b-J	.
8g	bi
16gL	der
16aJ	.
=16	=16
4f	ſi!
8r}	.
==	==
!!!AGN: Liebes - Lied, Leid, Klage
!!!GTL: Liebeslieder - Liebesleid
!!!ONB: ESAC (Essen Associative Code) Database: BOEHME
!!!AMT: simple duple
!!!AIN: vox
!!!EED: Helmut Schaffrath
!!!EEV: 1.0
!!@@COMMENT:"Gedicht und Melodie von Gottlieb Jakob Kuhn. 1805. Jm Berner Dialekt. Ʒuerſt gedr.
!!in: "Volkslieder und Gedichte". Bern, bei L. R. Walther. 1806, S. 95. Seit Silchers Bearbeitung
!!für Männerchor (V. Heft, Nr. 4. 1830) wird dieſes ʒarte, innige Liedlein viel geſungen. - Ab-
!!geändert bei Kretʒſchmer, Volksl. J, Nr. No: "J hab' ein artiges Blümeli g'ſeh. " Danach
!!in Haſe's Liederb. Leipʒig 1843 (u. 1883)."
!!@@END:
!!!Text: G. J. Kuhn
!!!URL-scan: https://archive.org/details/BoehmeVtLieder1895/page/n371/mode/2up
!!!ENC: Anna Maria Matuszewska
!!!EEV: 2024/09/07
*-	*-
